!!!COM: Palestrina, Giovanni Perluigi da
!!!OPR: Missa Nigra sum
!!!OTL: Gloria
**kern	**kern	**kern	**kern	**kern
*Ibass	*Itenor	*Itenor	*Icalto	*Icant
!Bassus	!Tenor 2	!Tenor 1	!Altus	!Cantus
*clefF4	*clefGv2	*clefGv2	*clefG2	*clefG2
*k[b-]	*k[b-]	*k[b-]	*k[b-]	*k[b-]
*D:aeo	*D:aeo	*D:aeo	*D:aeo	*D:aeo
*M4/2	*M4/2	*M4/2	*M4/2	*M4/2
=1	=1	=1	=1	=1
0r	0d	0r	0r	0r
=2	=2	=2	=2	=2
0r	1d	0r	1r	0r
.	[1c	.	[1g	.
=3	=3	=3	=3	=3
0r	2c]	0r	1g]	0r
.	2G	.	.	.
.	2B-	.	1g	.
.	2c	.	.	.
=4	=4	=4	=4	=4
0r	2.d	0r	1.f	0dd
.	4c	.	.	.
.	[1B-	.	.	.
.	.	.	2d	.
=5	=5	=5	=5	=5
0r	2B-]	0r	2f	1dd
.	2B-	.	2g	.
.	4F	.	4a	[1cc
.	4G	.	4g	.
.	4A	.	[2f	.
.	4B-	.	.	.
=6	=6	=6	=6	=6
0r	1c	0g	2f]	2cc]
.	.	.	2e-	2g
.	2G	.	2d	2b-
.	2c	.	2e-	2cc
=7	=7	=7	=7	=7
0r	2B-	1g	0d	2.dd
.	2G	.	.	.
.	.	.	.	4cc
.	2.B-	[1f	.	2b-
.	.	.	.	2b-
.	4c	.	.	.
=8	=8	=8	=8	=8
0r	2.d	2f]	1f	2a
.	.	2d	.	2.ff
.	4c	.	.	.
.	1B-	2f	1d	.
.	.	.	.	4ee
.	.	2g	.	[2dd
=9	=9	=9	=9	=9
1r	1A	2a	1e	2dd]
.	.	2a	.	2cc#
[1G	2.B-	2d	1g	2dd
.	.	2d	.	2dd
.	8A	.	.	.
.	8G	.	.	.
=10	=10	=10	=10	=10
1G]	2.B-	2d	2r	0b-
.	.	2e-	4G	.
.	4c	.	4A	.
1G	1d	2d	4B-	.
.	.	.	4c	.
.	.	4B-	4d	.
.	.	4c	4e	.
=11	=11	=11	=11	=11
1.F	2d	4d	4f	1a
.	.	4e	4g	.
.	2c	4f	4a	.
.	.	4g	4b-	.
.	2f	[1a	2cc	1r
2D	[2f	.	2f	.
=12	=12	=12	=12	=12
2F	4f]	2a]	2a	0r
.	4e	.	.	.
2G	1d	4g	2b-	.
.	.	4f	.	.
1A	.	1e	1a	.
.	2c#	.	.	.
=13	=13	=13	=13	=13
2r	[0d	1d	2f	2r
2G	.	.	2b-	2dd
2G	.	1r	2g	2b-
2G	.	.	[2b-	[2dd
=14	=14	=14	=14	=14
0D	1d]	2r	2b-]	2dd]
.	.	2d	4a	4cc
.	.	.	4g	4b-
.	2r	2d	1f#	1a
.	2d	2d	.	.
=15	=15	=15	=15	=15
2r	2d	1G	1g	2.b-
1d	2g	.	.	.
.	.	.	.	4cc
.	2f	1r	2a	2dd
2d	2a	.	2f	2ff
=16	=16	=16	=16	=16
1d	2g	0r	1a	2dd
.	1a	.	.	1ff
[1A	.	.	2.cc	.
.	4g	.	.	4ee
.	4f	.	4b-	4dd
=17	=17	=17	=17	=17
2A]	2e	0r	2a	2cc#
2B-	2d	.	2g	1dd
1A	1e	.	1a	.
.	.	.	.	2cc#
=18	=18	=18	=18	=18
2r	2d	2r	2f	[0dd
1G	1g	2d	2b-	.
.	.	2B-	2g	.
2G	2g	[2d	[2b-	.
=19	=19	=19	=19	=19
1.D	2.f	2d]	2b-]	1dd]
.	.	4c	4a	.
.	4e-	4B-	4g	.
.	2d	2A	2f#	1r
2E-	2c	2G	2g	.
=20	=20	=20	=20	=20
0D	2d	2A	2f	2r
.	2d	2a	2d	2ff
.	2d	2f	2a	2dd
.	2d	2a	2f	[2ff
=21	=21	=21	=21	=21
0r	1.A	2a	2.cc	2ff]
.	.	4g	.	4ee
.	.	4f	4b-	4dd
.	.	2e	2a	2cc#
.	2B-	2d	2g	[2dd
=22	=22	=22	=22	=22
1r	1A	1e	1a	2dd]
.	.	.	.	2cc#
[1BB-	[1d	[1d	[1f	2dd
.	.	.	.	[2dd
=23	=23	=23	=23	=23
2BB-]	2d]	2d]	2f]	2dd]
2BB-	2B-	2d	2f	2dd
1BB-	1d	1B-	1f	1dd
=24	=24	=24	=24	=24
1F	1.f	1c	1a	1cc
2C	.	2c	2g	2cc
2C	2e-	2c	2g	2cc
=25	=25	=25	=25	=25
0G	2d	2B-	0g	2.dd
.	2.B-	4G	.	.
.	.	4A	.	4cc
.	.	4B-	.	1b-
.	4A	4c	.	.
.	2G	4d	.	.
.	.	4e	.	.
=26	=26	=26	=26	=26
2F	1A	1f	2c	1a
1F	.	.	1c	.
.	1A	1r	.	[1ff
2E-	.	.	2c	.
=27	=27	=27	=27	=27
2D	1A	1.f	1.d	2ff]
2C	.	.	.	2ee-
2BB-	1B-	.	.	2dd
2C	.	2e-	2e-	2cc
=28	=28	=28	=28	=28
1D	1F	2d	2f	2b-
.	.	2c	2f	2a
2E-	2r	2B-	2g	2g
2F	2c	2A	4f	[2a
.	.	.	4e-	.
=29	=29	=29	=29	=29
2G	2B-	2B-	2d	4a]
.	.	.	.	4g
2C	2G	2c	2e-	1g
1D	4d	1A	[1d	.
.	8c	.	.	.
.	8B-	.	.	.
.	2A	.	.	2f#
=30	=30	=30	=30	=30
2r	2.B-	1G	1d]	2g
1G	.	.	.	1b-
.	4c	.	.	.
.	4d	2r	1r	.
.	4e	.	.	.
2F	2f	[2d	.	2a
=31	=31	=31	=31	=31
2G	1e	2d]	1r	2b-
2A	.	2c	.	2a
2B-	1r	2d	2r	1g
[2c	.	[2e	[2g	.
=32	=32	=32	=32	=32
2c]	0r	2e]	2g]	1r
2A	.	2c	2f	.
1G	.	2.d	2g	2r
.	.	.	[2b-	[2dd
.	.	4e	.	.
=33	=33	=33	=33	=33
2.F	1r	1f	2b-]	2dd]
.	.	.	2a	2cc
8G	.	.	.	.
8A	.	.	.	.
1B-	2r	1d	2g	2dd
.	[2d	.	2f	[2ff
=34	=34	=34	=34	=34
1A	2d]	2r	1a	2ff]
.	2c	1a	.	2ee
1r	2d	.	2.f	1dd
.	[2f	2a	.	.
.	.	.	4g	.
=35	=35	=35	=35	=35
0r	2f]	2a	4a	1cc
.	.	.	4b-	.
.	2e	2g	2.cc	.
.	2d	2f	.	1ff
.	.	.	4b-	.
.	2d	2d	[2b-	.
=36	=36	=36	=36	=36
0r	2c	2e	4b-]	2ee
.	.	.	4a	.
.	4B-	2f	1a	4dd
.	4A	.	.	4cc
.	1B-	2d	.	2.dd
.	.	[2d	2g	.
.	.	.	.	4ee
=37	=37	=37	=37	=37
2r	1A	2d]	1a	2ff
1A	.	2c#	.	2ee
.	2r	1d	1b-	1dd
2G	[2d	.	.	.
=38	=38	=38	=38	=38
1A	2d]	2f	1a	2r
.	2c#	1e	.	1a
1B-	1d	.	1r	.
.	.	[2d	.	2g
=39	=39	=39	=39	=39
1A	2f	2d]	0r	1a
.	1e	2c#	.	.
2F	.	1d	.	2a
2G	[2d	.	.	2b-
=40	=40	=40	=40	=40
1E	2d]	0r	2r	2.g
.	2c#	.	1g	.
.	.	.	.	4a
1D	2.d	.	.	2b-
.	.	.	2f	2a
.	4c	.	.	.
=41	=41	=41	=41	=41
2r	4B-	0r	2g	2dd
.	4A	.	.	.
1G	2G	.	1b-	2dd
.	[1d	.	.	2g
2F	.	.	2a	2a
=42	=42	=42	=42	=42
2G	1d]	2r	1g	4b-
.	.	.	.	4cc
1B-	.	1d	.	4dd
.	.	.	.	4ee
.	1r	.	1f	1ff
2A	.	2c	.	.
=43	=43	=43	=43	=43
2G	1r	2d	2b-	0r
2F	.	1f	1a	.
2B-	2r	.	.	.
2B-	[2d	4e	2g	.
.	.	4d	.	.
=44	=44	=44	=44	=44
1A	2d]	2f	[0a	0r
.	2c	1e	.	.
1D	2d	.	.	.
.	[2f	[2d	.	.
=45	=45	=45	=45	=45
1A	2f]	2d]	1a_	0r
.	2e	2c	.	.
[1F	2d	2.f	1a_	.
.	2c	.	.	.
.	.	4e	.	.
=46	=46	=46	=46	=46
2F]	2f	2d	0a]	1r
2D	2f	2d	.	.
1A	1e	1c#	.	[1a
=47	=47	=47	=47	=47
0r	0r	1d	1f	2a]
.	.	.	.	2a
.	.	1d	1f	[1b-
=48	=48	=48	=48	=48
0r	0r	0e-	0g	2b-]
.	.	.	.	4a
.	.	.	.	4g
.	.	.	.	2b-
.	.	.	.	2cc
=49	=49	=49	=49	=49
1D	1f#	2d	1a	0dd
.	.	2A	.	.
1D	1f#	2A	1d	.
.	.	[2B-	.	.
=50	=50	=50	=50	=50
0E-	1g	2B-]	2B-	1r
.	.	4A	1b-	.
.	.	4G	.	.
.	1G	2B-	.	1g
.	.	2c	4a	.
.	.	.	4g	.
=51	=51	=51	=51	=51
0D	2A	0d	2f#	1dd
.	2B-	.	1g	.
.	1A	.	.	1dd
.	.	.	2f#	.
=52	=52	=52	=52	=52
0G	2.G	1d	2g	2.b
.	.	.	2.g	.
.	4A	.	.	4cc
.	4B	2r	.	[1dd
.	4c	.	4g	.
.	4d	[2d	2g	.
.	4e	.	.	.
=53	=53	=53	=53	=53
0r	2.f	4d]	2a	1dd]
.	.	4d	.	.
.	.	2d	2f	.
.	8e	.	.	.
.	8d	.	.	.
.	1c	2e	2g	1r
.	.	2c	2a	.
=54	=54	=54	=54	=54
0r	1G	2.d	2.b-	2r
.	.	.	.	2.dd
.	.	4e	8a	.
.	.	.	8g	.
.	1r	2f	2a	.
.	.	.	.	4dd
.	.	2g	2b-	2dd
=55	=55	=55	=55	=55
0r	0r	1c	1cc	2ee
.	.	.	.	2cc
.	.	2.g	2.b-	2dd
.	.	.	.	2ee
.	.	8f	8a	.
.	.	8e	8g	.
=56	=56	=56	=56	=56
2r	0r	0d	2a	4ff
.	.	.	.	4ee
2.G	.	.	2.b-	4dd
.	.	.	.	4cc
.	.	.	.	2dd
4G	.	.	4a	.
2G	.	.	4g	2b-
.	.	.	4f	.
=57	=57	=57	=57	=57
2A	0r	0r	2e	2cc
2F	.	.	2d	1dd
2G	.	.	1e	.
2A	.	.	.	2cc#
=58	=58	=58	=58	=58
2.B-	2r	0r	2d	2dd
.	2.d	.	2f	2.b-
4A	.	.	.	.
1G	.	.	2g	.
.	4d	.	.	4b-
.	2d	.	2g	2b-
=59	=59	=59	=59	=59
1C	2e	2r	1g	1cc
.	2c	2.G	.	.
1r	2d	.	4g	1b-
.	.	4G	4f	.
.	2e	2G	4e	.
.	.	.	4d	.
=60	=60	=60	=60	=60
0r	1f	2A	2c	1a
.	.	2F	1d	.
.	2e	2G	.	2b-
.	[2f	2A	2c#	[2a
=61	=61	=61	=61	=61
0r	4f]	1B-	1d	2a]
.	4e	.	.	.
.	1d	.	.	2g
.	.	1A	1e	2.a
.	2c#	.	.	.
.	.	.	.	4g
=62	=62	=62	=62	=62
2r	1d	2r	1d	4f
.	.	.	.	4e
2B-	.	2d	.	2d
2G	2r	2B-	1r	1dd
[2B-	2f	[2d	.	.
=63	=63	=63	=63	=63
2B-]	2d	2d]	1r	0r
4A	2.f	4c	.	.
4G	.	4B-	.	.
2F	.	2A	2r	.
.	4e-	.	.	.
[2G	4d	[2B-	2b-	.
.	4c	.	.	.
=64	=64	=64	=64	=64
4G]	1d	4B-]	2g	0r
8F	.	4c	.	.
8E-	.	.	.	.
2D	.	1d	1b-	.
1E-	1G	.	.	.
.	.	2c	4a	.
.	.	.	4g	.
=65	=65	=65	=65	=65
1D	2A	[0d	2.f	2r
.	2a	.	.	2ff
.	.	.	4g	.
2r	2f	.	2a	2dd
2D	[2a	.	4f	[2ff
.	.	.	4g	.
=66	=66	=66	=66	=66
2F	2a]	1d]	4a	2ff]
.	.	.	4f	.
2G	4g	.	2b-	4ee
.	4f	.	.	4dd
[1A	2e	2r	[1a	2cc#
.	2f	[2a	.	[2dd
=67	=67	=67	=67	=67
1A]	1e	2a]	1a]	2dd]
.	.	2e	.	2cc#
2D	2d	1f	1r	1dd
2B-	2d	.	.	.
=68	=68	=68	=68	=68
2G	2B-	2g	1b-	2r
2.B-	2.d	1G	.	2dd
.	.	.	2g	2b-
4A	4c	.	.	.
[2G	4B-	2d	[2b-	[2dd
.	4A	.	.	.
=69	=69	=69	=69	=69
2G]	2G	2B-	2b-]	4dd]
.	.	.	.	4ee
4F	2A	1d	4a	1ff
4E	.	.	4g	.
2D	2B-	.	2f	.
2E	2G	4c	2g	2ee
.	.	4B-	.	.
=70	=70	=70	=70	=70
2F#	0d	2A	2a	0dd
2G	.	2B-	1g	.
1D	.	1A	.	.
.	.	.	2f#	.
=71	=71	=71	=71	=71
0G	0d	0G	0g	0b
=72	=72	=72	=72	=72
0r	0r	1r	1r	1g
.	.	1G	1g	1dd
=73	=73	=73	=73	=73
0r	0r	1g	1b-	2dd
.	.	.	.	2dd
.	.	2g	2b-	2ee
.	.	2f	2a	2ff
=74	=74	=74	=74	=74
1r	1G	2g	1b-	4ee-
.	.	.	.	4dd
.	.	2g	.	1dd
1C	1c	1e-	1g	.
.	.	.	.	2cc
=75	=75	=75	=75	=75
1G	2c	2.d	2.g	0dd
.	2B-	.	.	.
.	.	4c	4a	.
2G	2G	4d	2b-	.
.	.	4e	.	.
2F	2A	2f	2a	.
=76	=76	=76	=76	=76
2G	2.B-	2e-	1g	0r
2G	.	1d	.	.
.	4A	.	.	.
1E-	1G	.	2r	.
.	.	2c	[2g	.
=77	=77	=77	=77	=77
1D	2A	1d	2g]	2r
.	2B-	.	2f	1dd
1r	1c	2r	1e-	.
.	.	[2g	.	2cc
=78	=78	=78	=78	=78
0r	0r	2g]	1d	2b-
.	.	2f	.	2a
.	.	2e-	2g	2g
.	.	2d	2f	[2a
=79	=79	=79	=79	=79
0r	0r	2c	2e-	4a]
.	.	.	.	4g
.	.	2B-	2d	1g
.	.	1A	1c	.
.	.	.	.	2f
=80	=80	=80	=80	=80
1r	2r	4G	1d	1b-
.	.	4A	.	.
.	1g	4B-	.	.
.	.	4c	.	.
2r	.	1d	1r	1a
[2d	2f	.	.	.
=81	=81	=81	=81	=81
2d]	1e	1A	2.a	0r
2c	.	.	.	.
.	.	.	4a	.
2B-	2d	1r	2g	.
2A	2c	.	2f	.
=82	=82	=82	=82	=82
2G	2B-	2r	2e-	0r
2F	2A	2d	1d	.
1E-	1G	1g	.	.
.	.	.	2c	.
=83	=83	=83	=83	=83
1D	1A	2g	1d	1a
.	.	2f#	.	.
1r	1G	2g	2r	1dd
.	.	2g	2d	.
=84	=84	=84	=84	=84
1r	0r	1e-	1g	2dd
.	.	.	.	2cc
2r	.	1d	2g	2dd
2D	.	.	2f#	2dd
=85	=85	=85	=85	=85
1d	1r	1G	2g	1b-
.	.	.	2g	.
2d	2r	2A	1e	2a
2c#	2A	[2a	.	2ee
=86	=86	=86	=86	=86
2d	1a	4a]	1d	2ff
.	.	4g	.	.
2d	.	4f	.	2dd
.	.	4e	.	.
1B-	2a	1d	1r	2ff
.	2g	.	.	4ee
.	.	.	.	4dd
=87	=87	=87	=87	=87
1A	2a	2e	2r	1cc#
.	2a	1A	2e	.
4D	1f	.	2a	1dd
4E	.	.	.	.
4F	.	[2d	2a	.
4G	.	.	.	.
=88	=88	=88	=88	=88
1A	1e	2d]	1a	2r
.	.	2c#	.	1a
[1D	2r	2d	2f#	.
.	[2d	[2A	[2a	2a
=89	=89	=89	=89	=89
2D]	2d]	2A]	2a]	1a
2D	2d	2A	2f#	.
[1D	[1d	1A	1f#	2r
.	.	.	.	[2a
=90	=90	=90	=90	=90
0D]	1d]	2r	2r	2a]
.	.	1d	1f#	2a
.	1r	.	.	2a
.	.	2d	2f#	2a
=91	=91	=91	=91	=91
0r	0r	2d	2f#	2b-
.	.	2d	2f#	2a
.	.	[1e-	[1g	2cc
.	.	.	.	[2b-
=92	=92	=92	=92	=92
1r	0r	1e-]	1g]	2b-]
.	.	.	.	4a
.	.	.	.	4g
[1D	.	[1d	2a	4f
.	.	.	.	4g
.	.	.	4f	[2a
.	.	.	4g	.
=93	=93	=93	=93	=93
2D]	0r	0d]	4a	2a]
.	.	.	4f	.
2D	.	.	2b-	1g
2D	.	.	1a	.
2D	.	.	.	2f#
=94	=94	=94	=94	=94
1E-	2.G	1.B-	2g	0g
.	.	.	1b-	.
.	4G	.	.	.
1E-	2G	.	.	.
.	2G	2c	4a	.
.	.	.	4g	.
=95	=95	=95	=95	=95
0D	2A	0d	2f#	0dd
.	2B-	.	1g	.
.	1A	.	.	.
.	.	.	2f#	.
=96	=96	=96	=96	=96
0G	1G	2B-	2g	1dd
.	.	2G	2g	.
.	2r	1g	1b-	2r
.	2G	.	.	2dd
=97	=97	=97	=97	=97
2r	1d	2f	2a	1ff
2D	.	2d	2b	.
1A	2c	2.e	[1cc	1ee
.	2c	.	.	.
.	.	4f	.	.
=98	=98	=98	=98	=98
2G	2d	1g	2cc]	0r
2G	2e	.	2b-	.
2A	2f	2r	2a	.
2B	[2g	2d	2g	.
=99	=99	=99	=99	=99
2c	2g]	2e	1a	1r
1d	2f	2f	.	.
.	1e	2g	1r	2r
2c	.	[2a	.	2a
=100	=100	=100	=100	=100
1B-	1d	2a]	1r	1dd
.	.	2g	.	.
1A	1e	1a	2r	2cc
.	.	.	2a	2cc
=101	=101	=101	=101	=101
1G	1g	0r	1b-	2dd
.	.	.	.	2ee
1r	2f	.	2a	2ff
.	2e	.	2g	[2gg
=102	=102	=102	=102	=102
0r	1d	2r	2a	2gg]
.	.	2d	2b	2ff
.	1c	2.g	2cc	1ee
.	.	.	[2cc	.
.	.	4g	.	.
=103	=103	=103	=103	=103
0r	1d	2f#	2cc]	1dd
.	.	1g	2b-	.
.	2.d	.	1a	2r
.	.	2f#	.	[2dd
.	4c	.	.	.
=104	=104	=104	=104	=104
1.G	4B-	1g	2g	4dd]
.	4A	.	.	4cc
.	2G	.	1b-	4b-
.	.	.	.	4a
.	2B-	1r	.	2g
2F	[2c	.	2a	2a
=105	=105	=105	=105	=105
2E-	4c]	0r	2g	2b-
.	4B-	.	.	.
2D	1B-	.	2f	2b-
1C	.	.	1e-	1cc
.	2A	.	.	.
=106	=106	=106	=106	=106
2.BB-	1B-	1r	1.d	2f
.	.	.	.	1ff
4C	.	.	.	.
1D	1A	[1f	.	.
.	.	.	4c	2ee
.	.	.	4B-	.
=107	=107	=107	=107	=107
1D	1f	2f]	1A	2dd
.	.	2e	.	2cc
1D	1f	2d	2r	2b-
.	.	2c	2f	2a
=108	=108	=108	=108	=108
2E-	2e-	2B-	2g	2g
2F	1d	2A	2f	2.a
1G	.	2.B-	2d	.
.	.	.	.	4g
.	4B-	.	[2d	[2g
.	4c	8A	.	.
.	.	8G	.	.
=109	=109	=109	=109	=109
1D	1d	2A	4d]	2g]
.	.	.	8c	.
.	.	.	8B-	.
.	.	1d	2A	2f#
2r	2.G	.	2B-	1g
[2G	.	2B-	2G	.
.	4B-	.	.	.
=110	=110	=110	=110	=110
2G]	1A	1c	1r	0r
2F	.	.	.	.
2G	1G	2e-	2r	.
[2B-	.	[2d	[2g	.
=111	=111	=111	=111	=111
2B-]	0r	2d]	2g]	0r
2.A	.	2c	2f	.
.	.	2.B-	2g	.
4G	.	.	.	.
[2G	.	.	[2b-	.
.	.	4c	.	.
=112	=112	=112	=112	=112
2G]	2r	1d	2b-]	0r
2F	1d	.	2.a	.
1E	.	1G	.	.
.	.	.	4g	.
.	2c#	.	2g	.
=113	=113	=113	=113	=113
1D	2d	1A	2f	2r
.	1f	.	2d	1dd
1r	.	1A	2a	.
.	[2e	.	2a	2cc#
=114	=114	=114	=114	=114
0r	4e]	1B-	2g	2dd
.	4d	.	.	.
.	1d	.	2f	1ff
.	.	1A	[1a	.
.	2c#	.	.	[2ee
=115	=115	=115	=115	=115
0r	1d	2.f	1a]	4ee]
.	.	.	.	4dd
.	.	.	.	1dd
.	.	8e	.	.
.	.	8d	.	.
.	1A	2e	1a	.
.	.	2e	.	2cc#
=116	=116	=116	=116	=116
2r	2r	2d	[0a	1dd
2D	2f	2d	.	.
1A	1e	1c#	.	1r
=117	=117	=117	=117	=117
2D	2.f	1d	1a]	1r
2.d	.	.	.	.
.	4e	.	.	.
.	1d	2f	2r	1dd
4c	.	.	.	.
2B-	.	[2g	2d	.
=118	=118	=118	=118	=118
2A	2r	4g]	1a	1cc
.	.	4f#	.	.
2A	2A	4f#	.	.
.	.	4e	.	.
1G	[1B-	2g	2d	1dd
.	.	2g	[2dd	.
=119	=119	=119	=119	=119
0r	2B-]	1d	4dd]	2ff
.	.	.	4cc	.
.	2G	.	2b-	1gg
.	1d	2r	2a	.
.	.	[2d	2a	2ff#
=120	=120	=120	=120	=120
0G	2r	4d]	1g	1gg
.	.	4c	.	.
.	1d	4B	.	.
.	.	4A	.	.
.	.	1B	1g	1dd
.	2G	.	.	.
=121	=121	=121	=121	=121
0C	2.g	1c	1e-	0ee-
.	4f	.	.	.
.	4e-	[1g	1c	.
.	4d	.	.	.
.	[2c	.	.	.
=122	=122	=122	=122	=122
0G	2c]	1g]	2d	1dd
.	4B-	.	2d	.
.	4A	.	.	.
.	1B-	[1d	[1g	1dd
=123	=123	=123	=123	=123
1D	1A	1d]	2g]	2r
.	.	.	2f#	2a
1r	1G	2r	1g	[1dd
.	.	2d	.	.
=124	=124	=124	=124	=124
0r	0r	1.g	1e-	2dd]
.	.	.	.	2cc
.	.	.	2d	2.dd
.	.	2f	2a	.
.	.	.	.	8cc
.	.	.	.	8dd
=125	=125	=125	=125	=125
1r	1G	1g	2b-	4ee-
.	.	.	.	4dd
.	.	.	2b-	1dd
1C	[1c	1e-	[1g	.
.	.	.	.	2cc
=126	=126	=126	=126	=126
1.G	2c]	1d	2g]	1dd
.	2B-	.	2g	.
.	2.c	2r	1a	1r
2F	.	2c	.	.
.	4d	.	.	.
=127	=127	=127	=127	=127
1G	2e-	2c	2r	0r
.	1d	2B-	2d	.
1E-	.	2G	[1g	.
.	2c	2G	.	.
=128	=128	=128	=128	=128
1D	2.d	1A	2g]	2r
.	.	.	2f#	2a
.	4c	.	.	.
1r	4B-	2r	1g	[1dd
.	4A	.	.	.
.	2G	2d	.	.
=129	=129	=129	=129	=129
2r	1A	1.a	1e	2dd]
2A	.	.	.	2cc#
[1d	1r	.	1d	1dd
.	.	2f	.	.
=130	=130	=130	=130	=130
2d]	2r	2d	1.a	2ff
2c#	2A	2e	.	2ee
1d	[1a	1f	.	2dd
.	.	.	2d	[2ff
=131	=131	=131	=131	=131
1B-	2a]	1d	1r	2ff]
.	2g	.	.	4ee
.	.	.	.	4dd
1A	1a	1e	2r	2cc#
.	.	.	[2a	2cc#
=132	=132	=132	=132	=132
2r	1.f	1d	4a]	1dd
.	.	.	4g	.
1d	.	.	4f	.
.	.	.	4e	.
.	.	2r	2d	1r
2c	2e	[2g	2e	.
=133	=133	=133	=133	=133
2B-	2d	2g]	1f	0r
2A	2c	2f	.	.
1G	1B-	2e	[1g	.
.	.	2d	.	.
=134	=134	=134	=134	=134
0A	1A	2c#	2g]	0r
.	.	1d	2f	.
.	[1a	.	1e	.
.	.	2c#	.	.
=135	=135	=135	=135	=135
1.d	2a]	1d	2f	1.ff
.	2g	.	2g	.
.	[1f	1r	1a	.
2c	.	.	.	2ee
=136	=136	=136	=136	=136
2B-	1f]	1r	0d	2dd
2A	.	.	.	2cc
1G	1g	2r	.	1b-
.	.	[2d	.	.
=137	=137	=137	=137	=137
1A	1e	2d]	1r	1a
.	.	2c	.	.
1D	1f	2B-	2r	2r
.	.	2A	2a	2ff
=138	=138	=138	=138	=138
0r	2.g	1G	1b-	2ee
.	.	.	.	1dd
.	4f	.	.	.
.	1e	1A	1a	.
.	.	.	.	2cc#
=139	=139	=139	=139	=139
1.B-	1.d	1r	0f	[0dd
.	.	[1d	.	.
2A	2c	.	.	.
=140	=140	=140	=140	=140
2G	2B-	0d]	2g	0dd]
2F#	2A	.	2a	.
1G	2G	.	1b-	.
.	[2g	.	.	.
=141	=141	=141	=141	=141
[0D	2g]	[0d	[0a	[0dd
.	4f#	.	.	.
.	4e	.	.	.
.	1f#	.	.	.
=142	=142	=142	=142	=142
0D]	0f#	0d]	0a]	0dd]
==	==	==	==	==
*-	*-	*-	*-	*-
!!!CDT: 1525/^1526/-1594/2/2
!!!OCY: Italia
!!!AGN: Mass (Parody)
!!!AST: renaissance, vocal
!!!ASW: Motet 1532 (Lhéritier)
!!!PWK: Masses, Book 5
!!!RNB: Cadence finals: G,A
!!!YOR: Le Opere Complete, v. 15, p. 89
!!!YOO: Rome, Italy: Fratelli Scalera
!!!END: 1992//
!!!EED: John Miller
!!!YEC: Copyright 2000, John Miller
!!!YEN: United States of America
!!!YEM: Rights to all derivative electronic formats reserved.
!!!YEM: Refer to licensing agreement for further details.
!!!YEM: This file must be accompanied by the licensing agreement.
!!!YEM: A copy of the licensing agreement may be found at http://www.music-cog.ohio-state.edu/HumdrumDatabases/Palestrina/license.txt
!!!EMD: converted to Humdrum by Bret Aarden
